src/assets/svg/location.svg

<svg width="27" height="33" viewBox="0 0 27 33" fill="none" xmlns="http://www.w3.org/2000/svg">
<path d="M13.1139 19.4382C10.1418 19.4382 7.71387 16.9006 7.71387 13.7616C7.71387 10.6226 10.1418 8.09961 13.1139 8.09961C16.086 8.09961 18.5139 10.6372 18.5139 13.7762C18.5139 16.9153 16.086 19.4382 13.1139 19.4382ZM13.1139 10.2999C11.2999 10.2999 9.80689 11.8547 9.80689 13.7762C9.80689 15.6978 11.286 17.2526 13.1139 17.2526C14.9418 17.2526 16.4208 15.6978 16.4208 13.7762C16.4208 11.8547 14.9278 10.2999 13.1139 10.2999Z" fill="#141416"/>
<path d="M13.4956 32.396C11.3654 32.396 9.22091 31.5526 7.55135 29.8808C3.30549 25.6035 -1.38654 18.7809 0.38377 10.6631C1.98136 3.29834 8.12706 0 13.4956 0C13.4956 0 13.4956 0 13.5099 0C18.8784 0 25.0241 3.29834 26.6217 10.6782C28.3776 18.796 23.6856 25.6035 19.4398 29.8808C17.7702 31.5526 15.6257 32.396 13.4956 32.396ZM13.4956 2.25913C9.30727 2.25913 3.92438 4.59357 2.4995 11.1601C0.945086 18.2538 5.20534 24.3685 9.06259 28.2392C11.5525 30.7543 15.453 30.7543 17.9429 28.2392C21.7858 24.3685 26.046 18.2538 24.5204 11.1601C23.0811 4.59357 17.6838 2.25913 13.4956 2.25913Z" fill="#141416"/>
</svg>

<svg xmlns="http://www.w3.org/2000/svg" width="27" height="33" fill="none"><path fill="#141416" d="M13.114 19.438c-2.972 0-5.4-2.537-5.4-5.676s2.428-5.662 5.4-5.662 5.4 2.537 5.4 5.676-2.428 5.662-5.4 5.662m0-9.138c-1.814 0-3.307 1.555-3.307 3.476s1.479 3.477 3.307 3.477 3.307-1.555 3.307-3.477-1.493-3.476-3.307-3.476"/><path fill="#141416" d="M13.496 32.396c-2.13 0-4.275-.843-5.945-2.515-4.246-4.277-8.938-11.1-7.167-19.218C1.98 3.298 8.127 0 13.496 0h.014c5.368 0 11.514 3.298 13.112 10.678 1.756 8.118-2.936 14.926-7.182 19.203-1.67 1.672-3.814 2.515-5.944 2.515m0-30.137c-4.189 0-9.572 2.335-10.997 8.901-1.554 7.094 2.706 13.21 6.565 17.08 2.49 2.514 6.39 2.514 8.88 0 3.843-3.871 8.103-9.986 6.577-17.08-1.439-6.566-6.836-8.9-11.024-8.9"/></svg>
